!!!AGN: Motet
!!!SCT: Picker (1987)
!!!voices: 4
!!!COM: Maistre Jan
!!!OTL: Ave stella matutina
**kern	**kern	**kern	**kern
*part4	*part3	*part2	*part1
*staff4	*staff3	*staff2	*staff1
*I"Bassus	*I"Altus II	*I"Altus I	*I"Superius
*I'B	*I'A. II	*I'A. I	*I'S
*clefF4	*clefG2	*clefG2	*clefG2
*k[]	*k[]	*k[]	*k[]
*C:	*C:	*C:	*C:
*M2/1	*M2/1	*M2/1	*M2/1
*met(C|)	*met(C|)	*met(C|)	*met(C|)
!!section: Prima pars: Ave stella matutina
!!!OMD: Prima pars: Ave stella matutina
0r	0r	1d	0r
.	.	[1g	.
=1	=1	=1	=1
0r	0r	1g]	0r
.	.	1g	.
=2	=2	=2	=2
0r	0r	1.f	1a
.	.	.	[1dd
.	.	2d	.
=3	=3	=3	=3
0r	0r	1f	1dd]
.	.	1g	1dd
=4	=4	=4	=4
0r	0r	2.a	1.cc
.	.	4g	.
.	.	2e	.
.	.	2f	2a
=5	=5	=5	=5
0r	0r	4g	1b
.	.	4f	.
.	.	4e	.
.	.	4d	.
.	.	1e	1cc
=6	=6	=6	=6
1D	0r	[0d	2dd
.	.	.	2a
[1G	.	.	2b
.	.	.	[2dd
=7	=7	=7	=7
1G]	0r	0d]	4dd]
.	.	.	4cc
.	.	.	4b
.	.	.	4a
1G	.	.	1b
=8	=8	=8	=8
1.F	1A	0r	0a
.	[1d	.	.
2D	.	.	.
=9	=9	=9	=9
1F	1d]	0r	0r
1G	1d	.	.
=10	=10	=10	=10
2.A	1.c	0r	0r
4G	.	.	.
2E	.	.	.
2F	2A	.	.
=11	=11	=11	=11
4G	1B	2r	0r
4F	.	.	.
4E	.	2d	.
4D	.	.	.
1E	1c	2g	.
.	.	2g	.
=12	=12	=12	=12
0D	[1d	1.f	1a
.	4d]	.	[1dd
.	4c	.	.
.	4B	2d	.
.	4A	.	.
=13	=13	=13	=13
0r	1B	2f	2dd]
.	.	2g	2dd
.	1A	[1a	2cc
.	.	.	2a
=14	=14	=14	=14
0r	1r	2a]	2cc
.	.	4g	2dd
.	.	4f	.
.	2r	2g	1ee
.	2A	[2a	.
=15	=15	=15	=15
0r	1.d	4a]	1.ff
.	.	4g	.
.	.	4f	.
.	.	4e	.
.	.	1f	.
.	2d	.	4ee
.	.	.	4dd
=16	=16	=16	=16
0r	2c	2e	4ee
.	.	.	4ff
.	2A	1a	1ee
.	2c	.	.
.	2d	2f	4dd
.	.	.	4cc
=17	=17	=17	=17
1r	0e	1g	2b
.	.	.	2.ee
1A	.	1a	.
.	.	.	4dd
.	.	.	4cc
.	.	.	4b
=18	=18	=18	=18
1.d	1.f	0r	0a
2d	4e	.	.
.	4d	.	.
=19	=19	=19	=19
2c	2e	0r	1.cc
2A	2f	.	.
2c	2e	.	.
2d	[2a	.	4b
.	.	.	4a
=20	=20	=20	=20
1e	2a]	1r	2cc
.	2g#i	.	2b
1A	1a	2e	2.cc
.	.	2f	.
.	.	.	4dd
=21	=21	=21	=21
1r	2r	2g	1ee
.	2c	2a	.
2F	2c	1r	1a
2F	2d	.	.
=22	=22	=22	=22
2G	1e	1r	1r
1A	.	.	.
.	1A	2r	2cc
[2F	.	2f	2cc
=23	=23	=23	=23
4F]	2r	2f	2dd
4E	.	.	.
2C	2c	2g	1ee
1r	2c	[1a	.
.	2d	.	2dd
=24	=24	=24	=24
1r	1e	2a]	2cc
.	.	2g	2b
2r	2A	2.f	2a
2F	[2a	.	[2cc
.	.	4e	.
=25	=25	=25	=25
2F	2a]	2f	2cc]
2G	4g	1d	2b
.	4f	.	.
[1A	2e	.	1a
.	[2a	[2c	.
=26	=26	=26	=26
1A]	4a]	4c]	2r
.	4g	4B	.
.	4f	2c	2cc
.	4e	.	.
1r	1f	2A	2cc
.	.	2B	2dd
=27	=27	=27	=27
1r	2e	2.c	1ee
.	2g	.	.
.	.	4d	.
2r	2g	1e	[1ee
2c	2g	.	.
=28	=28	=28	=28
2c	1a	0r	2ee]
2d	.	.	2dd
[1e	[1g	.	1cc
=29	=29	=29	=29
2e]	2g]	2r	1b
2d	2f	2f	.
2c	2e	2g	2cc
4B	4d	2g	[2ee
4A	4c	.	.
=30	=30	=30	=30
2c	2e	1.a	2ee]
2d	2f	.	1dd
1A	1e	.	.
.	.	2g	2cc#i
=31	=31	=31	=31
1D	2r	2f	0dd
.	1a	4e	.
.	.	4d	.
1r	.	2f	.
.	2g	2g	.
=32	=32	=32	=32
1r	2f	1d	2r
.	4e	.	1dd
.	4d	.	.
2r	2f	1r	.
[2G	2g	.	2dd
=33	=33	=33	=33
2G]	0d	2r	1dd
2G	.	1g	.
1G	.	.	[1b
.	.	2g	.
=34	=34	=34	=34
1E	1e	1g	1b]
[1A	2.c	2e	[1cc
.	.	4c	.
.	4B	4d	.
=35	=35	=35	=35
2A]	2c	4e	2cc]
.	.	4f	.
2G	2d	2g	2b
2A	2c	2e	2.a
2c	2A	[2a	.
.	.	.	4g
=36	=36	=36	=36
2B	1d	2a]	1b
2G	.	1g	.
1d	2r	.	1a
.	[2d	2f#i	.
=37	=37	=37	=37
[0G	2d]	0g	2r
.	2d	.	1dd
.	1d	.	.
.	.	.	2dd
=38	=38	=38	=38
0G]	1B	0r	1dd
.	[1e	.	2b
.	.	.	4g
.	.	.	4a
=39	=39	=39	=39
0r	2e]	0r	4b
.	.	.	4cc
.	2d	.	2dd
.	2e	.	2b
.	2g	.	[2ee
=40	=40	=40	=40
1r	2.f	2r	2ee]
.	.	1a	2dd
.	8e	.	.
.	8d	.	.
[1A	2f	.	2.cc
.	2e	2a	.
.	.	.	4b
=41	=41	=41	=41
2A]	2.c	2f	2a
2A	.	2e	2.cc
.	4d	.	.
1A	1e	2.a	.
.	.	.	4dd
.	.	.	2ee
.	.	4g	.
=42	=42	=42	=42
1.d	0r	4f	0a
.	.	4e	.
.	.	1f	.
2c	.	2e	.
=43	=43	=43	=43
2B	0r	2d	0r
2G	.	2.e	.
2.A	.	.	.
.	.	4d	.
.	.	4c	.
4B	.	4B	.
=44	=44	=44	=44
2c	0r	2A	0r
2d	.	1a	.
1B	.	.	.
.	.	2g#i	.
=45	=45	=45	=45
0A	1.e	0a	1r
.	.	.	[1cc
.	2e	.	.
=46	=46	=46	=46
2r	1e	2g	2cc]
2.A	.	2a	2cc
.	[1a	1e	[1cc
4G	.	.	.
4F	.	.	.
4E	.	.	.
=47	=47	=47	=47
2F	2a]	2r	1cc]
2E	2g	2e	.
1D	2f	[1a	[1dd
.	2d	.	.
=48	=48	=48	=48
1A	2.e	1a]	2dd]
.	.	.	2cc
.	4f	.	.
2.G	2g	2d	2b
.	2e	2B	2g
4F	.	.	.
=49	=49	=49	=49
4D	1f	2d	2.a
4E	.	.	.
4F	.	2.c	.
4G	.	.	4b
2A	2e	.	2cc
.	.	8dL	.
.	.	8eJ	.
2D	[2a	2f	2dd
=50	=50	=50	=50
1E	2a]	1e	1b
.	2g	.	.
[1A	2f	[1c	1a
.	[2e	.	.
=51	=51	=51	=51
1A]	4e]	1c]	2r
.	4d	.	.
.	4c	.	1ee
.	4B	.	.
1r	1A	2r	.
.	.	[2a	2ee
=52	=52	=52	=52
0r	0r	2a]	1.ff
.	.	2a	.
.	.	[1b	.
.	.	.	2ee
=53	=53	=53	=53
0r	0r	2b]	2dd
.	.	2a	2.ee
.	.	2g	.
.	.	.	4dd
.	.	2a	4cc
.	.	.	4b
=54	=54	=54	=54
0r	0r	2f	2a
.	.	4e	1dd
.	.	4d	.
.	.	1e	.
.	.	.	2cc#i
=55	=55	=55	=55
0r	1r	1d	2dd
.	.	.	2.a
.	[1e	2.A	.
.	.	.	4b
.	.	.	4cc
.	.	4B	4dd
=56	=56	=56	=56
1.A	2e]	0c	1ee
.	2e	.	.
.	[1f	.	1a
2A	.	.	.
=57	=57	=57	=57
1.B-X	2f]	1d	0r
.	2e	.	.
.	2d	1r	.
2A	[2e	.	.
=58	=58	=58	=58
2G	4e]	0r	0r
.	4d	.	.
2A	4c	.	.
.	4B	.	.
2F	2A	.	.
4E	[2d	.	.
4D	.	.	.
=59	=59	=59	=59
1E	2d]	1r	0r
.	2c#i	.	.
1D	1d	[1a	.
=60	=60	=60	=60
1.A	2r	1a]	2r
.	1c	.	1ee
.	.	[1a	.
2A	2c	.	2ee
=61	=61	=61	=61
1.d	1f	1a]	1.ff
.	2f	[1b-X	.
2G	[2g	.	2ee
=62	=62	=62	=62
2G	2g]	2b-]	2dd
1c	1e	2a	2.ee
.	.	2g	.
.	.	.	4dd
2A	2e	2a	4cc
.	.	.	4b
=63	=63	=63	=63
1d	2.f	2f	2a
.	.	4e	1dd
.	4g	4d	.
1A	1a	1e	.
.	.	.	2cc#i
=64	=64	=64	=64
[0D	[0f	1d	0dd
.	.	2r	.
.	.	[2d	.
=65	=65	=65	=65
0D]	1f]	4d]	1r
.	.	4e	.
.	.	4f	.
.	.	4g	.
.	2r	2a	1dd
.	[2d	2b	.
=66	=66	=66	=66
0r	4d]	1a	0ff
.	4e	.	.
.	4f	.	.
.	4g	.	.
.	2a	1d	.
.	[2f	.	.
=67	=67	=67	=67
0r	2f]	2r	1ff
.	4e	2a	.
.	4d	.	.
.	1c	[1cc	1ee
=68	=68	=68	=68
0r	0f	1cc]	2r
.	.	.	2.a
.	.	1cc	.
.	.	.	4b
.	.	.	4cc
.	.	.	4dd
=69	=69	=69	=69
0r	1r	2a	2ee
.	.	2.d	2ff
.	1d	.	1dd
.	.	4e	.
.	.	4f	.
.	.	4g	.
=70	=70	=70	=70
0r	0f	0a	1.cc
.	.	.	4b
.	.	.	4a
=71	=71	=71	=71
1A	1f	2r	1a
.	.	2.A	.
[1c	1e	.	2r
.	.	4B	.
.	.	4c	[2a
.	.	4d	.
=72	=72	=72	=72
1c]	2r	2e	4a]
.	.	.	4b
.	2.A	2f	4cc
.	.	.	4dd
1c	.	1e	2ee
.	4B	.	.
.	4c	.	[2cc
.	4d	.	.
=73	=73	=73	=73
1A	2e	1a	2cc]
.	2f	.	4b
.	.	.	4a
2r	2e	4a	[1a
.	.	4g	.
[2D	2d	4f	.
.	.	4e	.
=74	=74	=74	=74
4D]	2.f	4d	1a]
4E	.	4c	.
4F	.	2f	.
4G	4e	.	.
2A	2c	2e	2r
2F	[2f	2d	[2a
=75	=75	=75	=75
2A	4f]	2c	2a]
.	4e	.	.
2B-i	4d	1f	2f
.	4c	.	.
1G	1B-X	.	1b-i
.	.	2e	.
=76	=76	=76	=76
1F	[0c	1f	[0a
1r	.	1e	.
=77	=77	=77	=77
1A	1c]	4e	0a]
.	.	4d	.
.	.	4c	.
.	.	4B	.
[1c	1r	1A	.
=78	=78	=78	=78
1c]	1r	0e	2r
.	.	.	2a
1c	1A	.	[1cc
=79	=79	=79	=79
2A	0c	0r	1cc]
1F	.	.	.
.	.	.	1cc
4E	.	.	.
4D	.	.	.
=80	=80	=80	=80
1C	0c	1e	2a
.	.	.	2g
1F	.	[1f	2a
.	.	.	[2cc
=81	=81	=81	=81
1r	1A	1f]	2cc]
.	.	.	4b
.	.	.	4a
1A	1a	1f	2.cc
.	.	.	4dd
=82	=82	=82	=82
0c	2.g	1f	2ee
.	.	.	1cc
.	4f	.	.
.	4e	2r	.
.	4d	.	.
.	2f	[2A	4b
.	.	.	4a
=83	=83	=83	=83
1c	1e	4A]	0a
.	.	4B	.
.	.	4c	.
.	.	4d	.
2A	[1c	2e	.
2F	.	[2f	.
=84	=84	=84	=84
1A	1c]	4f]	1.a
.	.	4e	.
.	.	1e	.
1B	1d	.	.
.	.	4d	2g
.	.	4e	.
=85	=85	=85	=85
[0A	2c	4f	2a
.	.	4e	.
.	1e	1a	1cc
.	2c	4g	[2a
.	.	4f	.
=86	=86	=86	=86
1.A]	1c	1e	4a]
.	.	.	4g
.	.	.	4f
.	.	.	4e
.	2r	1r	2f
2G	[2d	.	2g
=87	=87	=87	=87
1A	2d]	1r	1e
.	2c	.	.
1D	2d	[1a	1r
.	[2f	.	.
=88	=88	=88	=88
1r	2f]	2a]	0r
.	2.e	2g	.
[1A	.	2a	.
.	4d	.	.
.	4c	[2cc	.
.	4B	.	.
=89	=89	=89	=89
2A]	2c	2cc]	0r
2D	2d	2.a	.
1E	1B	.	.
.	.	4g	.
.	.	4f	.
.	.	4e	.
=90	=90	=90	=90
0r	2A	2f	2r
.	2G	2g	1dd
.	1A	1e	.
.	.	.	2cc
=91	=91	=91	=91
0r	2r	2r	2dd
.	1d	1a	1ff
.	2e	2g	[2ee
=92	=92	=92	=92
1.A	2c	2a	4ee]
.	.	.	4dd
.	2.e	1cc	4cc
.	.	.	4b
.	.	.	2cc
.	4f	.	.
2G	2g	2b	2dd
=93	=93	=93	=93
2A	0e	2a	0cc
1c	.	4g	.
.	.	4f	.
.	.	2g	.
[2A	.	2a	.
=94	=94	=94	=94
4A]	1c	2e	1a
4G	.	.	.
4F	.	1f	.
4E	.	.	.
2F	[1d	.	1r
2G	.	4e	.
.	.	4d	.
=95	=95	=95	=95
1E	2d]	1g	2r
.	2c	.	2e
1D	2B	1r	2.f
.	2A	.	.
.	.	.	4f
=96	=96	=96	=96
1A	1.c	1.a	1e
1r	.	.	1r
.	2B	2g	.
=97	=97	=97	=97
0r	1A	2f	1r
.	.	2e	.
.	2.e	[1g	[1ee
.	4f	.	.
=98	=98	=98	=98
0r	2g	2g]	2ee]
.	2a	2f	2dd
.	2g	1e	2cc
.	4f	.	2b
.	4e	.	.
=99	=99	=99	=99
0r	2d	2r	1.dd
.	2f	1a	.
.	1e	.	.
.	.	2g	2cc
=100	=100	=100	=100
1.d	0r	2.f	0a
.	.	4d	.
.	.	2f	.
2c	.	2e	.
=101	=101	=101	=101
2B	0r	2d	2r
2A	.	2.e	1cc
[1c	.	.	.
.	.	4f	.
.	.	[2g	4b
.	.	.	4a
=102	=102	=102	=102
2c]	2r	4g]	1g
.	.	4f	.
2B	1d	2d	.
1A	.	1e	1a
.	2c	.	.
=103	=103	=103	=103
1D	2B	1r	2f
.	2A	.	2d
1A	[1c	[1a	1e
=104	=104	=104	=104
0r	2c]	2a]	0r
.	2B	2g	.
.	1A	2f	.
.	.	2e	.
=105	=105	=105	=105
0r	2.e	1.g	1.ee
.	4f	.	.
.	2g	.	.
.	2a	2f	2dd
=106	=106	=106	=106
0r	2g	1e	2cc
.	4f	.	2b
.	4e	.	.
.	2d	2r	[1dd
.	2f	[2a	.
=107	=107	=107	=107
1r	1e	2a]	2dd]
.	.	2g	2cc
[1d	1r	2.f	[1a
.	.	4d	.
=108	=108	=108	=108
2d]	0r	2f	1a]
2c	.	2e	.
2B	.	2d	1r
2A	.	2e	.
=109	=109	=109	=109
1.c	1.a	1A	1r
.	.	1r	2r
2B	2g	.	[2dd
=110	=110	=110	=110
1A	2f	1r	2dd]
.	2e	.	2cc
1r	[1g	1e	2b
.	.	.	2g
=111	=111	=111	=111
2r	2g]	2e	1.cc
1A	2f	2.c	.
.	2e	.	.
.	.	4d	.
2G	4d	2e	2b
.	4c	.	.
=112	=112	=112	=112
2F	2d	2f	2a
2E	1e	1g	1cc
[1G	.	.	.
.	[2d	[2g	[2b
=113	=113	=113	=113
2G]	4d]	4g]	2b]
.	4c	4f	.
2F	2A	2d	1a
1E	1B	1e	.
.	.	.	2g#i
=114	=114	=114	=114
00A	00A	00c	00a
=115||	=115||	=115||	=115||
*M2/1	*M2/1	*M2/1	*M2/1
*met(C|)	*met(C|)	*met(C|)	*met(C|)
!!section: Secunda pars: Tu es area compluta
!!!OMD: Secunda pars: Tu es area compluta
0r	1d	0r	0r
.	[1f	.	.
=116	=116	=116	=116
0r	1f]	0r	0r
.	1f	.	.
=117	=117	=117	=117
1A	2e	0r	0r
.	2.c	.	.
[1A	.	.	.
.	4d	.	.
.	2e	.	.
=118	=118	=118	=118
1A]	2f	0r	0r
.	1e	.	.
1B	.	.	.
.	2d	.	.
=119	=119	=119	=119
2A	2c	0r	0r
2G	2.e	.	.
[1A	.	.	.
.	4d	.	.
.	4c	.	.
.	4B	.	.
=120	=120	=120	=120
2A]	2c	0r	0r
2.G	2.B	.	.
4F	4A	.	.
2D	[2d	.	.
=121	=121	=121	=121
1E	2d]	0r	1r
.	2c#i	.	.
[1D	[1d	.	1dd
=122	=122	=122	=122
1D]	0d_	0r	0ff
2r	.	.	.
[2D	.	.	.
=123	=123	=123	=123
4D]	1d]	1r	1ff
4E	.	.	.
4F	.	.	.
4G	.	.	.
2.A	2r	1a	2ee
.	[2A	.	[2cc
4B	.	.	.
=124	=124	=124	=124
1c	4A]	0a	4cc]
.	4B	.	4dd
.	2c	.	2ee
1r	2d	.	2ff
.	2A	.	[2ee
=125	=125	=125	=125
0r	0r	1b	2ee]
.	.	.	2dd
.	.	2a	2cc
.	.	2g	[2ee
=126	=126	=126	=126
1r	0r	1.a	4ee]
.	.	.	4dd
.	.	.	4cc
.	.	.	4b
1A	.	.	2a
.	.	2g	[2ee
=127	=127	=127	=127
0A	0r	1f	2ee]
.	.	.	1dd
.	.	2e	.
.	.	[2f	2cc
=128	=128	=128	=128
1B	0r	2f]	1dd
.	.	4e	.
.	.	4d	.
1A	.	2c	1r
.	.	[2e	.
=129	=129	=129	=129
2G	0r	4e]	2r
.	.	4d	.
1A	.	4c	2.e
.	.	4B	.
.	.	2A	.
.	.	.	4f
2G	.	[2e	2g
=130	=130	=130	=130
2F	1r	2e]	2a
2D	.	1d	2f
1A	1a	.	1e
.	.	2c#i	.
=131	=131	=131	=131
1D	0a	1.d	1.f
1r	.	.	.
.	.	2c	2e
=132	=132	=132	=132
2r	1b	2B-X	2f
1d	.	2G	2g
.	[1a	1A	1e
2c	.	.	.
=133	=133	=133	=133
2A	1a]	0r	0r
2c	.	.	.
1B	1g	.	.
=134	=134	=134	=134
1.A	1.a	0r	1ee
.	.	.	1ee
2c	2g	.	.
=135	=135	=135	=135
1d	2f	2r	1ff
.	2d	1a	.
1r	1e	.	[1ee
.	.	2g	.
=136	=136	=136	=136
0r	1c	2e	1ee]
.	.	2g	.
.	1d	1f	1dd
=137	=137	=137	=137
2r	2A	1.e	1.ee
1A	1c	.	.
2B	2d	2g	2dd
=138	=138	=138	=138
2c	2e	1a	2cc
2d	2f	.	2a
2G	2d	1g	2b
[2c	[2e	.	4cc
.	.	.	4dd
=139	=139	=139	=139
2c]	2e]	2e	2ee
2d	2f	2.a	1dd
1e	1g	.	.
.	.	4g	.
.	.	[2g	2cc#i
=140	=140	=140	=140
1d	1a	2g]	1dd
.	.	2f	.
[1G	[1g	2d	[1b
.	.	[2e	.
=141	=141	=141	=141
1G]	1g]	2e]	1b]
.	.	4d	.
.	.	4c	.
1r	1r	2d	1b
.	.	2e	.
=142	=142	=142	=142
1r	0e	1A	1.cc
2r	.	1r	.
[2A	.	.	2a
=143	=143	=143	=143
2A]	1e	0r	2cc
2G	.	.	2b
2F	[1f	.	[1a
2D	.	.	.
=144	=144	=144	=144
2F	2f]	2r	0a]
2G	2d	1d	.
1A	2f	.	.
.	2e	2c	.
=145	=145	=145	=145
0r	2d	2B	2r
.	4c	2A	1ee
.	4B	.	.
.	2A	2c	.
.	2B	2d	2dd
=146	=146	=146	=146
0r	1A	1e	2cc
.	.	.	2a
.	2r	1f	2cc
.	[2d	.	2dd
=147	=147	=147	=147
0r	2d]	1e	1ee
.	2c	.	.
.	2B	2d	2r
.	2A	[2c	[2ee
=148	=148	=148	=148
1r	2c	2c]	2ee]
.	2d	2B	2dd
2r	[1e	1A	2cc
[2A	.	.	2a
=149	=149	=149	=149
2A]	1e]	0r	2cc
2G	.	.	2b
2F	[1f	.	1a
2D	.	.	.
=150	=150	=150	=150
2F	2f]	1r	2r
2G	4e	.	2b
.	4d	.	.
2.A	2f	2r	2.cc
.	2e	[2a	.
4B	.	.	4dd
=151	=151	=151	=151
1c	1e	2a]	2ee
.	.	2g	2ee
1r	2r	2f	2dd
.	2f	2d	[2ff
=152	=152	=152	=152
1r	2d	2f	2ff]
.	2e	2g	1ee
1d	2.f	1a	.
.	.	.	2dd
.	4g	.	.
=153	=153	=153	=153
1e	1.a	1A	1.cc
2A	.	1r	.
2d	4g	.	4b
.	4f	.	4a
=154	=154	=154	=154
2c	2e	1g	2cc
2B	2d	.	2dd
1A	2.e	1a	1cc
.	8fL	.	.
.	8eJ	.	.
=155	=155	=155	=155
2r	2f	2d	0r
2G	2e	2g	.
1A	1c	2f	.
.	.	2e	.
=156	=156	=156	=156
1D	1r	1d	1dd
1r	2g	1c	1ee
.	[2a	.	.
=157	=157	=157	=157
1r	2a]	1d	2a
.	2d	.	2dd
2r	1g	2G	2cc
2G	.	2d	2b
=158	=158	=158	=158
1A	2f	2d	1a
.	2e	2c	.
2D	1d	2f	1r
2G	.	4e	.
.	.	4d	.
=159	=159	=159	=159
2F	2r	2d	2r
2E	2g	2c	2ee
[1D	1a	1d	[1ff
=160	=160	=160	=160
1D]	1d	1A	1ff]
1r	1g	1r	2ee
.	.	.	2dd
=161	=161	=161	=161
1r	2f	1r	2.dd
.	2e	.	.
.	.	.	4cc
2r	2.d	1a	[1dd
[2d	.	.	.
.	4e	.	.
=162	=162	=162	=162
2d]	1f	2b-i	1dd]
2d	.	1a	.
2c	1r	.	1r
2B	.	2g	.
=163	=163	=163	=163
2A	1r	2f	1r
2B	.	2g	.
[1G	1d	1g	[1b
=164	=164	=164	=164
1G]	1e	2r	1b]
.	.	2g	.
1r	2A	2a	[1cc
.	2e	4A	.
.	.	4B	.
=165	=165	=165	=165
1A	2e	4c	1cc]
.	.	4d	.
.	2c	4e	.
.	.	4f	.
2G	1d	2g	2b
2F	.	2d	2a
=166	=166	=166	=166
1.E	1B	1e	1.g
.	1c	2r	.
[2A	.	2e	2a
=167	=167	=167	=167
2A]	2c	0f	[0a
2.D	1d	.	.
4E	.	.	.
4F	[2c	.	.
4G	.	.	.
=168	=168	=168	=168
0A	4c]	2e	0a_
.	4d	.	.
.	2f	2d	.
.	1e	2.c#i	.
.	.	4d	.
=169	=169	=169	=169
0D	0f	0d	0a]
=170	=170	=170	=170
*M3/1	*M3/1	*M3/1	*M3/1
*met(3)	*met(3)	*met(3)	*met(3)
1A	1c	1e	1a
1A	1c	1e	1a
1D	1d	1f	1a
=171	=171	=171	=171
0A	1.e	0a	0cc
.	2f	.	.
1G	1g	1d	1b
=172	=172	=172	=172
1F	1c	1f	1a
0B-i	0d	1f	2a
.	.	.	4g
.	.	.	4f
.	.	2e	1g
.	.	2d	.
=173	=173	=173	=173
0A	0e	0c	0a
1r	1r	1r	1r
=174	=174	=174	=174
1A	1c	1e	1a
1A	1c	1e	1a
1D	1d	1f	1a
=175	=175	=175	=175
0A	1.e	0a	0cc
.	2f	.	.
1G	1g	1d	1b
=176	=176	=176	=176
1F	1c	1f	1a
0B-i	0d	1f	2a
.	.	.	4g
.	.	.	4f
.	.	2e	1g
.	.	2d	.
=177	=177	=177	=177
*M2/1	*M2/1	*M2/1	*M2/1
*met(C|)	*met(C|)	*met(C|)	*met(C|)
[0A	1e	2.c	[0a
.	.	4d	.
.	1c	[1e	.
=178	=178	=178	=178
1A]	2r	1e]	0a_
.	1c	.	.
1r	.	1r	.
.	2d	.	.
=179	=179	=179	=179
0r	2f	2r	0a]
.	1e	1c	.
.	[2d	2d	.
=180	=180	=180	=180
0r	2d]	2f	2r
.	2c	1e	1cc
.	2A	.	.
.	[2a	[2d	2dd
=181	=181	=181	=181
0r	4a]	2d]	2ff
.	4f	.	.
.	2g	2c	1ee
.	2a	[1A	.
.	2f	.	[2dd
=182	=182	=182	=182
2r	1e	1A]	2dd]
1c	.	.	2cc
.	1r	1r	[1a
2d	.	.	.
=183	=183	=183	=183
2f	2r	0r	0a]
1e	1c	.	.
[2d	2d	.	.
=184	=184	=184	=184
2d]	2f	1r	2r
2.c	1e	.	1cc
.	.	1g	.
4B	.	.	.
2G	[2d	.	2dd
=185	=185	=185	=185
2d	2d]	2a	2ff
1c	1g	1cc	1ee
2d	2f	2b	[2dd
=186	=186	=186	=186
1A	1e	2.a	2dd]
.	.	.	2cc
.	.	4g	.
1D	2d	2f	[1a
.	[2f	2d	.
=187	=187	=187	=187
2r	2f]	1f	0a]
1A	4e	.	.
.	4d	.	.
.	1c	2e	.
2A	.	2f	.
=188	=188	=188	=188
2B	0r	2d	1r
2G	.	2.g	.
[1c	.	.	2r
.	.	4f	.
.	.	4e	[2g
.	.	4d	.
=189	=189	=189	=189
2c]	0r	2c	2g]
2B	.	2d	2g
2A	.	2e	2a
2d	.	2f	2a
=190	=190	=190	=190
2.c	2r	1g	1.cc
.	1e	.	.
4B	.	.	.
2A	.	2c	.
2G	2e	2g	2b
=191	=191	=191	=191
1d	2f	1a	2a
.	2d	.	2.dd
1G	[1g	1r	.
.	.	.	4cc
.	.	.	4b
.	.	.	4a
=192	=192	=192	=192
0r	2g]	2r	2b
.	2f	1A	2cc
.	2e	.	1a
.	2f	2A	.
=193	=193	=193	=193
0r	2d	2B	2r
.	2.e	2G	1g
.	.	[1c	.
.	4d	.	.
.	4c	.	2g
.	4B	.	.
=194	=194	=194	=194
1r	2A	2c]	2a
.	2d	2B	2g
1c	1e	1A	[1cc
=195	=195	=195	=195
2A	2f	1r	2cc]
2G	1g	.	2b
1d	.	2r	1a
.	2f#i	[2d	.
=196	=196	=196	=196
0G	[1g	2d]	2r
.	.	2d	1b
.	4g]	1e	.
.	4f	.	.
.	4e	.	2b
.	4d	.	.
=197	=197	=197	=197
0r	1e	2c	1cc
.	.	2c	.
.	1d	2.f	2a
.	.	.	2a
.	.	4e	.
=198	=198	=198	=198
0r	1r	2d	1dd
.	.	4c	.
.	.	4B	.
.	[1e	2.A	1cc
.	.	4B	.
=199	=199	=199	=199
1.A	2e]	1c	0a
.	2e	.	.
.	1f	1r	.
2A	.	.	.
=200	=200	=200	=200
1B	2d	0r	1r
.	2d	.	.
2G	1g	.	[1dd
2G	.	.	.
=201	=201	=201	=201
1d	1f	2r	2dd]
.	.	1a	2dd
1c	[1e	.	1ee
.	.	2g	.
=202	=202	=202	=202
1A	1e]	1a	2cc
.	.	.	2cc
2r	2d	2f	1ff
2d	2f	2a	.
=203	=203	=203	=203
2c	2g	1cc	0ee
2A	1a	.	.
1e	.	1b	.
.	2g	.	.
=204	=204	=204	=204
0A	2f	0a	0cc
.	4e	.	.
.	4d	.	.
.	1e	.	.
=205	=205	=205	=205
*M3/1	*M3/1	*M3/1	*M3/1
*met(3)	*met(3)	*met(3)	*met(3)
1A	1e	1a	1cc
1G	1g	1b	1dd
1A	1e	1a	1cc
=206	=206	=206	=206
0F	0a	0cc	0ff
1G	1g	1b	1ee
=207	=207	=207	=207
1G	1g	1b	1dd
0A	1f	0a	2dd
.	.	.	4cc#i
.	.	.	4b
.	1e	.	1cc#i
=208	=208	=208	=208
0D	0d	0f	0dd
1r	1r	1r	1r
=209	=209	=209	=209
1A	1e	1a	1cc
1G	1g	1b	1dd
1A	1e	1a	1cc
=210	=210	=210	=210
0F	0a	0cc	0ff
1G	1g	1b	1ee
=211	=211	=211	=211
1B-X	1d	1g	1dd
0A	0e	0a	2dd
.	.	.	4cc#i
.	.	.	4b
.	.	.	1cc#i
=212	=212	=212	=212
0D	0f	1.a	[0.ddl
.	.	4g	.
.	.	4f	.
1G	1d	1g	.
=213	=213	=213	=213
1F	[0.dl	1a	0.dd_
0G	.	0b-i	.
=214	=214	=214	=214
00Dl	00d]	00al	00dd]
==	==	==	==
*-	*-	*-	*-
!!!system-decoration: [*]
!!!RDF**kern: i = editorial accidental
!!!RDF**kern: l = terminal long
!!!ENC: Benjamin Ory
!!!END: 2022/2/10
!!!EED: Benjamin Ory
!!!EEV: 2022/02/10
!!!YEC: Copyright 2022 Benjamin Ory, All Rights Reserved
!!!ONB: Translated from MusicXML on 2022/02/10